svgs/regular/fire-burner.svg

<svg xmlns="http://www.w3.org/2000/svg" viewBox="0 0 640 512"><!--! Font Awesome Pro 6.4.2 by @fontawesome - https://fontawesome.com License - https://fontawesome.com/license (Commercial License) Copyright 2023 Fonticons, Inc. --><path d="M293.5 3.8c19.7 17.8 38.2 37 55.5 57.7c7.9-9.9 16.8-20.7 26.5-29.5c5.6-5.1 14.4-5.1 20 0c24.7 22.7 45.6 52.7 60.4 81.1c14.5 28 24.2 58.8 24.2 79C480 280 408.7 352 320 352c-89.7 0-160-72.1-160-159.8c0-26.4 12.7-60.7 32.4-92.6c20-32.4 48.1-66.1 81.4-95.8c2.8-2.5 6.4-3.8 10-3.7c3.5 0 7 1.3 9.8 3.8zM370 273c30-21 38-63 20-96c-2-4-4-8-7-12l-36 42s-58-74-62-79c-30 37-45 58-45 82c0 49 36 78 81 78c18 0 34-5 49-15zM32 280c0-13.3 10.7-24 24-24h48c13.3 0 24 10.7 24 24s-10.7 24-24 24H80v80H560V304H536c-13.3 0-24-10.7-24-24s10.7-24 24-24h48c13.3 0 24 10.7 24 24V384c17.7 0 32 14.3 32 32v64c0 17.7-14.3 32-32 32H32c-17.7 0-32-14.3-32-32V416c0-17.7 14.3-32 32-32V280zM48 464H164.3c-2.7-4.7-4.3-10.2-4.3-16s1.6-11.3 4.3-16H48v32zm171.7 0h72.6c-2.7-4.7-4.3-10.2-4.3-16s1.6-11.3 4.3-16H219.7c2.7 4.7 4.3 10.2 4.3 16s-1.6 11.3-4.3 16zm128 0h72.6c-2.7-4.7-4.3-10.2-4.3-16s1.6-11.3 4.3-16H347.7c2.7 4.7 4.3 10.2 4.3 16s-1.6 11.3-4.3 16zM592 464V432H475.7c2.7 4.7 4.3 10.2 4.3 16s-1.6 11.3-4.3 16H592z"/></svg>

<svg xmlns="http://www.w3.org/2000/svg" viewBox="0 0 640 512"><!--! Font Awesome Pro 6.1.1 by @fontawesome - https://fontawesome.com License - https://fontawesome.com/license (Commercial License) Copyright 2022 Fonticons, Inc. --><path d="M349 61.49C356.9 51.61 365.8 40.76 375.5 31.99C381.1 26.87 389.9 26.89 395.5 32.03C420.2 54.71 441.1 84.69 455.8 113.2C470.4 141.2 480 169.9 480 190.1C480 277.9 408.7 352 320 352C230.3 352 160 277.8 160 190.1C160 163.7 172.7 131.5 192.4 99.52C212.4 67.16 240.5 33.43 273.8 3.734C279.4-1.26 287.1-1.242 293.5 3.773C313.3 21.55 331.8 40.74 349 61.49V61.49zM390 176.1C388 172.1 386 168.1 383 164.1L347 206.1C347 206.1 289 132.1 285 127.1C255 164.1 240 185.1 240 209.1C240 258.1 276 287.1 320.1 287.1C339 287.1 355 282.1 370 272.1C400 251.1 408 209.1 390 176.1zM32 279.1C32 266.7 42.75 255.1 56 255.1H104C117.3 255.1 128 266.7 128 279.1C128 293.3 117.3 303.1 104 303.1H80V384H560V303.1H536C522.7 303.1 512 293.3 512 279.1C512 266.7 522.7 255.1 536 255.1H584C597.3 255.1 608 266.7 608 279.1V384C625.7 384 640 398.3 640 416V480C640 497.7 625.7 512 608 512H32C14.33 512 0 497.7 0 480V416C0 398.3 14.33 384 32 384V279.1zM164.3 464C161.6 459.3 160 453.8 160 448C160 442.2 161.6 436.7 164.3 432H48V464H164.3zM219.7 464H292.3C289.6 459.3 288 453.8 288 448C288 442.2 289.6 436.7 292.3 432H219.7C222.4 436.7 224 442.2 224 448C224 453.8 222.4 459.3 219.7 464zM347.7 464H420.3C417.6 459.3 416 453.8 416 448C416 442.2 417.6 436.7 420.3 432H347.7C350.4 436.7 352 442.2 352 448C352 453.8 350.4 459.3 347.7 464zM592 432H475.7C478.4 436.7 480 442.2 480 448C480 453.8 478.4 459.3 475.7 464H592V432z"/></svg>
